!!!OTL: Vergebliche Warnung (80b), S. 219
!!!id: T0233
**kern
*clefG2
*k[b-]
*F:
{8f
=1
8f
8c
8f
8a
8cc
8a
=2
8a
8g
4g}
8r
=3
{8g
=4
8g
8a
8b-
8cc
8dd
8cc
=5
8cc
8b-
4a}
8r
=6
{8f
=7
8f
8c
8f
8a
8cc
8ff
=8
4dd}
4.r
=9
{8a
=10
8dd
8a
4cc
8cc
8b-
=11
4a}
4.r
==
*-
!!!minrhy: 8
!!!meters: 3/4 ]  ZZ[4
!!!cut: Vergebliche Warnung (80b), S. 219
!!!reg: Luxemburg
!!!trd: Singendes Volk, Esch-Alzette 1937 posth.
!!!rhy1: X  XXXXXX  XXX_0
!!!rhy2: X  XXXXXX  XXX_0
!!!key: T0233  08  F 3/4 ]  ZZ[4
!!!mod: SECHSTONSKALA DUR ?]  AMBITUS[11
!!!kad: 2363
!!!akz: 13_25_16_63_
!!!fot: 'a__b__aw_c__
!!!for: 'a__a__aw_b__
!!!fok: '^a_^a_^a_^__
!! PHRAS[AUFTAKTIG]
!!!fkt: Liebeslieder
!!!bem: Rosport, fff Maria Schiltz, 8.3.1934
!! THILL, Mathias:
!! PR[29] 2K[0] 2G[4] 3K[7] 3G[7] 4A[4] 4Ü[0] 5A[0] 6K[0] 6G[4]
!! 7K[0] 7G[0] 8A[0] MEHR[0] SI[25] ABS[28] SR[4] SP[21]
!! ST[8] 2k[11] 2g[29] 3k[4] 3g[4] 4d[0] 4ü[0] 5d[0] 6k[0] 6g[0]
!! 7k[0] 7g[0] 8d[0] mehr[0] si[46] dm[-21] sr[39] sp[7]
!! 1F[67] 2F[27] 3F[6] 4F[0] LF[0] 2P[0] 3P[0] 4P[0] TRI[0] DF[3] AB[33]
!! TF[0] U3K[0] U3[0] U4[0] U4Ü[0] U5[0] U6K[0] U6[0] U7K[0] U7[0]
!! N1[24] N2K[0] N2[3] N3K[0] N3[17] N4[10] N4Ü[0] N5[28] N6K[0] N6[14]
!!!n7k: 0] N7[0] O1[3] O2K[0] O2[0] O3K[0] O3[0] HÖ[0
